Simply black circles/scalable/emblems/emblem-system.svg

<?xml version="1.0" encoding="UTF-8" standalone="no"?>
<!-- Created with Inkscape (http://www.inkscape.org/) -->

<svg
   xmlns:dc="http://purl.org/dc/elements/1.1/"
   xmlns:cc="http://creativecommons.org/ns#"
   xmlns:rdf="http://www.w3.org/1999/02/22-rdf-syntax-ns#"
   xmlns:svg="http://www.w3.org/2000/svg"
   xmlns="http://www.w3.org/2000/svg"
   xmlns:sodipodi="http://sodipodi.sourceforge.net/DTD/sodipodi-0.dtd"
   xmlns:inkscape="http://www.inkscape.org/namespaces/inkscape"
   id="svg2"
   width="24"
   height="24"
   version="1.0"
   sodipodi:docname="emblem-system.svg"
   inkscape:version="0.92.3 (2405546, 2018-03-11)">
  <metadata
     id="metadata25">
    <rdf:RDF>
      <cc:Work
         rdf:about="">
        <dc:format>image/svg+xml</dc:format>
        <dc:type
           rdf:resource="http://purl.org/dc/dcmitype/StillImage" />
        <dc:title></dc:title>
      </cc:Work>
    </rdf:RDF>
  </metadata>
  <sodipodi:namedview
     pagecolor="#ffffff"
     bordercolor="#666666"
     borderopacity="1"
     objecttolerance="10"
     gridtolerance="10"
     guidetolerance="10"
     inkscape:pageopacity="0"
     inkscape:pageshadow="2"
     inkscape:window-width="1366"
     inkscape:window-height="719"
     id="namedview23"
     showgrid="false"
     inkscape:zoom="19.666667"
     inkscape:cx="-5.1021785"
     inkscape:cy="11.79661"
     inkscape:window-x="0"
     inkscape:window-y="25"
     inkscape:window-maximized="1"
     inkscape:current-layer="svg2" />
  <defs
     id="defs4">
    <linearGradient
       id="linearGradient2407"
       x1="63.397"
       x2="63.397"
       y1="-12.489"
       y2="5.4676"
       gradientTransform="matrix(1.0863 0 0 1.0862 -55.567 15.814)"
       gradientUnits="userSpaceOnUse">
      <stop
         id="stop4875"
         style="stop-color:#fff"
         offset="0" />
      <stop
         id="stop4877"
         style="stop-color:#fff;stop-opacity:0"
         offset="1" />
    </linearGradient>
    <radialGradient
       id="radialGradient2410"
       cx="23.896"
       cy="3.99"
       r="20.397"
       gradientTransform="matrix(0,1.2316,-1.6257,0,-1.513,-28.721)"
       gradientUnits="userSpaceOnUse">
      <stop
         id="stop3244"
         style="stop-color:#f8b17e"
         offset="0" />
      <stop
         id="stop3246"
         style="stop-color:#e35d4f"
         offset=".26238" />
      <stop
         id="stop3248"
         style="stop-color:#c6262e"
         offset=".66094" />
      <stop
         id="stop3250"
         style="stop-color:#690b54"
         offset="1" />
    </radialGradient>
    <linearGradient
       id="linearGradient2412"
       x1="18.379"
       x2="18.379"
       y1="44.98"
       y2="3.0816"
       gradientTransform="matrix(0.51604,0,0,0.51604,-20.38499,-0.38499)"
       gradientUnits="userSpaceOnUse">
      <stop
         id="stop2492"
         style="stop-color:#791235"
         offset="0" />
      <stop
         id="stop2494"
         style="stop-color:#dd3b27"
         offset="1" />
    </linearGradient>
    <radialGradient
       id="radialGradient2415"
       cx="62.625"
       cy="4.625"
       r="10.625"
       gradientTransform="matrix(1.1294 0 0 .28235 -58.729 19.694)"
       gradientUnits="userSpaceOnUse">
      <stop
         id="stop8840"
         offset="0" />
      <stop
         id="stop8842"
         style="stop-opacity:0"
         offset="1" />
    </radialGradient>
  </defs>
  <path
     style="fill:#164450;fill-opacity:1;stroke:none;stroke-width:1.00370002;stroke-linecap:round;stroke-linejoin:round"
     d="m 12,1.5018 c -5.7926,0 -10.498,4.7057 -10.498,10.498 0,5.7926 4.7057,10.498 10.498,10.498 5.7926,0 10.498,-4.7057 10.498,-10.498 C 22.498,6.2072 17.7923,1.5018 12,1.5018 Z"
     id="path2555"
     inkscape:connector-curvature="0" />
  <path
     inkscape:connector-curvature="0"
     style="overflow:visible;fill:#ffffff;stroke-width:1.05224693"
     d="m 11.956617,4.5231707 c -0.231494,0 -0.462989,0.011575 -0.690274,0.03262 L 10.839131,6.7591954 A 5.2738616,5.2738616 0 0 0 9.8195036,7.0874964 L 8.2085135,5.5438502 C 7.7991895,5.785867 7.44353,6.0847051 7.0899751,6.3982747 L 8.0433107,8.4038573 A 5.3212127,5.3212127 0 0 0 7.4193283,9.2593341 L 5.2159234,8.9636527 A 7.2710263,7.2710263 0 0 0 4.788711,10.310529 l 1.9392912,1.052247 a 5.0781437,5.0781437 0 0 0 -0.031567,0.526123 c 0,0.182039 0.013679,0.349346 0.031567,0.526124 L 4.788711,13.46727 c 0.102068,0.46825 0.2399123,0.917559 0.4272124,1.347928 l 2.2034049,-0.295681 c 0.178882,0.305151 0.3903836,0.592415 0.6239824,0.854424 l -0.9533356,2.006635 c 0.3535549,0.31357 0.7092144,0.612408 1.1185384,0.854425 L 9.8195036,16.68925 c 0.3219874,0.144158 0.6671244,0.252539 1.0196274,0.329353 l 0.427212,2.203405 a 7.4898936,7.4898936 0 0 0 1.380548,0 l 0.428265,-2.203405 c 0.35145,-0.07681 0.697639,-0.185195 1.018575,-0.329353 l 1.612042,1.546803 c 0.408272,-0.242017 0.764983,-0.541907 1.117487,-0.855477 l -0.953337,-2.006635 c 0.233599,-0.262009 0.446153,-0.549273 0.625035,-0.854424 l 2.202354,0.295681 a 7.2710263,7.2710263 0 0 0 0.428264,-1.347928 l -1.940343,-1.052247 c 0.01789,-0.176778 0.03262,-0.344085 0.03262,-0.526124 0,-0.182038 -0.01473,-0.349346 -0.03262,-0.526123 l 1.940343,-1.052247 A 7.2689218,7.2689218 0 0 0 18.697312,8.9626004 L 16.494958,9.2582818 A 5.3212127,5.3212127 0 0 0 15.869923,8.4028051 L 16.82326,6.3972224 C 16.470756,6.0836529 16.114045,5.7848147 15.705773,5.5427979 L 14.092678,7.0874964 A 5.2770183,5.2770183 0 0 0 13.074103,6.7591954 L 12.645839,4.5557903 a 7.4898936,7.4898936 0 0 0 -0.689222,-0.03262 z m 0,4.2089877 a 3.1567408,3.1567408 0 1 1 0,6.3134816 3.1567408,3.1567408 0 0 1 0,-6.3134816 z"
     overflow="visible"
     id="path2" />
</svg>

<svg xmlns="http://www.w3.org/2000/svg" width="24" height="24" version="1"><path d="M12 1.502C6.207 1.502 1.502 6.208 1.502 12c0 5.792 4.706 10.498 10.498 10.498 5.793 0 10.498-4.706 10.498-10.498 0-5.793-4.706-10.498-10.498-10.498z" fill="#164450"/><path d="M11.957 4.523c-.232 0-.463.012-.69.033l-.428 2.203a5.274 5.274 0 0 0-1.02.328L8.21 5.544c-.41.242-.765.54-1.119.854l.953 2.006a5.321 5.321 0 0 0-.624.855l-2.203-.295a7.271 7.271 0 0 0-.427 1.347l1.939 1.052a5.078 5.078 0 0 0-.032.526c0 .182.014.35.032.526l-1.94 1.052c.103.469.24.918.428 1.348l2.203-.295c.18.305.39.592.624.854L7.09 17.38c.354.313.71.612 1.119.854l1.61-1.546c.322.144.668.253 1.02.33l.427 2.203a7.49 7.49 0 0 0 1.38 0l.43-2.203a5.213 5.213 0 0 0 1.018-.33l1.612 1.547c.408-.242.765-.542 1.117-.855l-.953-2.007c.234-.262.446-.55.625-.854l2.202.295a7.271 7.271 0 0 0 .429-1.348l-1.94-1.052c.017-.177.032-.344.032-.526 0-.182-.015-.35-.033-.526l1.94-1.052a7.269 7.269 0 0 0-.428-1.348l-2.202.295a5.321 5.321 0 0 0-.625-.855l.953-2.006c-.352-.313-.709-.612-1.117-.854l-1.613 1.544a5.277 5.277 0 0 0-1.019-.328l-.428-2.203a7.49 7.49 0 0 0-.69-.033zm0 4.21a3.157 3.157 0 1 1 0 6.313 3.157 3.157 0 0 1 0-6.314z" overflow="visible" fill="#fff"/></svg>
